X:1
T:Oh, Brother, Don’t Harden Thy Heart
T:Oh, Brother, Don’t Harden Thy Heart
T:Elmer J. Rogers
T:Elmer J. Rogers, 1891
T:Public Domain Courtesy of the Cyber Hymnal™
C:Elmer J. Rogers
Z:Public Domain
Z:Courtesy of the Cyber Hymnal™
%%score ( 1 2 ) ( 3 4 )
L:1/8
Q:1/4=130
M:3/4
K:G
V:1 treble 
V:2 treble 
V:3 bass 
V:4 bass 
V:1
 (DD) | D2 [DG]2 [DA]2 | [DB]2 [DA]2 [DG]2 | D6 | [DG]4 (DD) | [DF]2 [DG]2 [DA]2 | %6
w: 1.~To- *|day if the|Sav- ior should|call|thee, His *|bless- ing and|
w: 2.~Is~the *|Spir- it now|striv- ing with-|in|thee? Dost~thou *|hear His sweet|
w: 3.~When *|thou shalt ac-|cept His sal-|va-|tion, Then *|peace like a|
 [DA]2 [DB]2 [Dc]2 | [DB]6- | [DB]4 (DD) | D2 [DG]2 [DA]2 | [DB]2 [DA]2 [DG]2 | [CE]6 | %12
w: par- don im-|part,|* If~the *|voice of the|Mas- ter should|woo|
w: voice soft and|low?|* His *|prom- ise of|par- don to|give|
w: riv- er will|flow;|* Thy *|life will be|hap- py and|bless-|
 [EG]4 [CE]2 | [B,D]2 [DB]2 [DG]2 | [DF]2 [DG]2 [DA]2 | [DG]6- | [DG]4 ||"^Refrain" D2 | %18
w: thee, Oh,|bro- ther, don’t|hard- en thy|heart.|||
w: thee, And|all of His|bless- ings be-|stow?||Oh,|
w: èd, Thy|heart will be|soft as the|snow.|||
 D2 [GB]2 [GB]2 | [GB]2 [G^A]2 [GB]2 | [D-G]6 | D4 D2 | D2 [Fc]2 [Fc]2 | [Fc]2 [^EB]2 [Fc]2 | %24
w: ||||||
w: bro- ther, don’t|hard- en thy|heart;|* Oh,|bro- ther, don’t|hard- en thy|
w: ||||||
 [FA]6- | [FA]4 D2 | D2 [GB]2 [GB]2 | [GB]2 [G^A]2 [GB]2 | ([=Fd-]6 | [Ed]4) [Ec]2 | %30
w: ||||||
w: heart;|* To-|day if thou|hear- est His|voice,|* Oh,|
w: ||||||
 [DB]2 [CA]2 [B,G]2 | D2 [^CE]2 [=CF]2 | [B,G]6- | [B,G]4 |] %34
w: ||||
w: bro- ther, don’t|hard- en thy|heart.||
w: ||||
V:2
 DD | D2 x4 | x6 | D6 | x4 DD | x6 | x6 | x6 | x4 DD | D2 x4 | x6 | x6 | x6 | x6 | x6 | x6 | x4 || %17
 D2 | D2 x4 | x6 | x6 | D4 D2 | D2 x4 | x6 | x6 | x4 D2 | D2 x4 | x6 | x6 | x6 | x6 | D2 x4 | x6 | %33
 x4 |] %34
V:3
 ([G,B,][G,B,]) | [G,B,]2 [G,B,]2 [G,C]2 | [G,D]2 [G,C]2 [G,B,]2 | [G,B,]6 | %4
 [G,B,]4 ([G,B,][G,B,]) | [D,A,]2 [D,B,]2 [D,C]2 | [D,F,]2 [D,G,]2 [D,A,]2 | G,6- | %8
 G,4 [G,B,][G,B,] | [G,B,]2 [G,B,]2 [G,C]2 | [G,D]2 [G,C]2 [G,B,]2 | [C,G,]6 | [C,C]4 [C,G,]2 | %13
 [D,G,]2 [D,G,]2 [D,B,]2 | [D,A,]2 [D,B,]2 [D,C]2 | [G,B,]6- | [G,B,]4 || [G,B,]2 | %18
 [G,B,]2 [G,D]2 [G,D]2 | [G,D]2 [G,^C]2 [G,D]2 | [G,B,]6- | [G,B,]4 [G,B,]2 | %22
 [F,A,]2 [D,A,]2 [D,A,]2 | [D,A,]2 [D,^G,]2 [D,A,]2 | [D,D]6- | [D,D]4 [G,B,]2 | %26
 [G,B,]2 [G,D]2 [G,D]2 | [G,D]2 [G,^C]2 [G,D]2 | ([B,,G,-]6 | [C,G,]4) [C,G,]2 | %30
 [D,G,]2 [D,F,]2 [D,G,]2 | [D,F,]2 [D,G,]2 [D,A,]2 | [G,,G,]6- | [G,,G,]4 |] %34
V:4
 x2 | x6 | x6 | x6 | x6 | x6 | x6 | G,6- | G,4 x2 | x6 | x6 | x6 | x6 | x6 | x6 | x6 | x4 || x2 | %18
 x6 | x6 | x6 | x6 | x6 | x6 | x6 | x6 | x6 | x6 | x6 | x6 | x6 | x6 | x6 | x4 |] %34

